X: 27609
T: Monymusk
R: reel
M: 4/4
K: Cmajor
A|GCEC DEFA|GCEC D2 FA|GCEC DEFA|GEFD EC C:|
cGEG AGEG|cGEG AD D2|cGEG AGEG|FEDF EC C2|
cGEG AGEG|cGEG FD D2|c2 B2 A2 GE|FGABc2||

